X: 17
T: Mavelle's Song
C: Armand Aromin
H: 12/9/04
M: 4/4
L: 1/8
R: Air
K: Dmaj
f2 gf e2 fe | dcBc A3 A | B2 c2 d2 e2 | f2 gf e2 A2 |
f2 gf e2 fe | dcBc A3 A | B2 c2 d2 e2 | e4 d4 |
a3 b bafg | a3 d e2 f2 | g2 fe f2 ed | cdBc A4 |
a3 b bafg | a3 d e2 f2 | g2 fe f2 ed | e4 d4 |]
